icon-themes/sifr_svg/cmd/sc_fontworkshapetype.fontwork-curve-up.svg

<svg viewBox="0 0 16 16" xmlns="http://www.w3.org/2000/svg"><g fill="#555753"><path d="m13 3.474609v9.525391h-10v-6z" opacity=".35"/><path d="m15 2v10c0 1.656854-3.134007 3-7 3s-7-1.343146-7-3v-6c4.018505-.0707468 9.201188-1.1761673 12-4zm-2 2.2949219c-2.660254 1.8668631-7.334773 3.7746777-10 3.5390625v4.1660156c0 .552285 2.238576 1 5 1s5-.447715 5-1z"/></g></svg>

<svg xmlns="http://www.w3.org/2000/svg" viewBox="0 0 16 16">
  <path
     style="opacity:0.35;fill:#555753"
     d="M 13,3.474609 V 13 H 3 V 7 Z"
     />
  <path
     style="fill:#555753"
     d="m 15,2 v 10 c 0,1.656854 -3.134007,3 -7,3 C 4.134007,15 1,13.656854 1,12 V 6 C 5.018505,5.9292532 10.201188,4.8238327 13,2 Z M 13,4.2949219 C 10.339746,6.161785 5.665227,8.0695996 3,7.8339844 V 12 c 0,0.552285 2.238576,1 5,1 2.761424,0 5,-0.447715 5,-1 z"
     />
</svg>
